X:1
T:Title
%%score { 1 | 2 }
L:1/8
M:4/4
K:Eb
V:1 treble nm="Grand Piano"
V:2 bass 
V:1
 z4 z2 z[Q:1/4=110] B | B3 B G2 A2 | c B3- B3 z | [DB]2 [DF][DF] [EG]2 [DA]2 | [EG]6 z2 | %5
 [GB]2 [GB][GB] [EG]2 [FA]2 | [Ac] [GB]3- [GB]3 z | [GB]2 [GB][GB] c2 d2 | [Ge]6 z [Fe] | %9
 [Bd]3 [Ac] [GB]2 [FA]2 | [EG] [GB]3- [GB]3 z | [DB]2 [DF][DF] [EG]2 [FA]2 | G6 z2 | G2 GG A2 B2 | %14
 c c3- c3 z | B2 EF [EG]2 [DF]2 | E6 z2 | [CA]2 [CA][CA] [CA]2 [_DB]2 | [Ec] [EB]3- [EB]3 z | %19
 [EB][EB] [DF]2 [EG]2 [FA]2 |[M:7/8] G-G-G- G3 z |[M:1/8] G |[M:4/4] G3 G A2 B2 | c c3- c3 z | %24
 B2 EF [EG]2 [DF]2 | E6 z2 |] %26
V:2
 z4 z2 z [E,G,E] | [E,G,E]3 [E,G,E] [E,B,E]2 [E,CE]2 | [E,A,E] [E,G,E]3- [E,G,E]3 z | %3
 [B,,F,]2 [B,,B,][B,,B,] [B,,B,]2 [B,,B,]2 | [E,B,]6 z2 | [E,E]2 [E,E][E,E] [E,B,]2 [E,B,]2 | %6
 [E,E] [E,E]3- [E,E]3 z | [E,E]2 [E,E][E,E][K:treble] [A,EA]2 [B,F]2 | [E,B,]6 z [E,B,] | %9
 [B,,B,]3 [B,,B,] [B,,B,]2 [B,,B,]2 | [E,B,] [E,B,]3- [E,B,]3 z | %11
 [B,,B,]2 [B,,B,][B,,B,] [B,,B,]2 [B,,B,]2 | [E,B,E]6 z2 | %13
 [E,B,E]2 [E,B,E][E,B,E] [F,B,D]2 [G,B,E]2 | [A,E] [A,E]3- [A,E]3 z | %15
 [E,G,E]2 [E,G,][E,A,E] [B,,B,]2 [B,,A,]2 | [E,G,]6 z2 | %17
 [A,,A,]2 [A,,A,][A,,A,] [A,,A,]2 [A,,A,]2 | [E,A,] [E,G,]3- [E,G,]3 z | %19
 [B,,F,][B,,F,] [B,,B,]2 [B,,B,]2 [B,,B,]2 |[M:7/8] [E,B,E]-[E,B,E]-[E,B,E]- [E,B,E]3 z | %21
[M:1/8] [E,B,E] |[M:4/4] [E,B,E]3 [E,B,E] [F,B,D]2 [G,B,E]2 | [A,E] [A,E]3- [A,E]3 z | %24
 [E,G,E]2 [E,G,][E,A,E] [B,,B,]2 [B,,A,]2 | [E,G,]6 z2 |] %26

